**kern	**kern	**dynam
*part1	*part1	*part1
*staff2	*staff1	*
*I"Piano	*	*
*clefF4	*clefG2	*
*k[]	*k[]	*
=1	=1	=1
[2EE	2.e 2.g#X 2.b 2.ee	mf
8EEL]	.	.
24BBBL	.	.
24CC	.	.
24DDJJ	.	.
=	=	=
4.EE	4a 4cc 4ff	.
.	4r	.
8EE	.	.
4EE	4r	.
=	=	=
[2EE	4g#X 4b 4ee	.
.	4r	.
8EEL]	4G#X 4B 4e	.
24BBBL	.	.
24CC	.	.
24DDJJ	.	.
=	=	=
4.EE	4A 4c 4f	.
.	4r	.
8EE	.	.
4EE	4r	.
=	=	=
4EE	4G#X 4B 4e	.
4r	4r	.
4BBB	4B	.
=	=	=
4EE	4e	.
4r	4r	.
4BBB	4B	.
=	=	=
4EE	4e	.
4r	4r	.
4BBB	4B	.
=	=	=
*-	*-	*-
!!!system-decoration: {(s1,s2)}
